images/service-1/usage-1.svg

<svg width="262" height="79" viewBox="0 0 262 79" fill="none" xmlns="http://www.w3.org/2000/svg">
<path d="M36.5626 31.5216H32.6227V38.3826H36.8778C39.3993 38.3826 40.8176 36.9712 40.8176 35.0501C40.8176 32.8546 39.4387 31.5216 36.5626 31.5216ZM38.9265 43.4402L32.6621 43.6362V52.536C32.6621 52.6144 32.6227 52.6536 32.5439 52.6536H26.5948C26.516 52.6536 26.4766 52.6144 26.4766 52.536V26.464C26.4766 26.3856 26.516 26.3464 26.5948 26.3464H38.0991C43.0633 26.3464 46.5698 29.7181 46.5698 34.6973C46.5304 40.931 42.3148 43.3226 38.9265 43.4402ZM51.1794 52.536V26.464C51.1794 26.3856 51.2188 26.3464 51.2976 26.3464H57.2862C57.365 26.3464 57.4044 26.3856 57.4044 26.464V52.536C57.4044 52.6144 57.365 52.6536 57.2862 52.6536H51.2976C51.2188 52.6536 51.1794 52.6144 51.1794 52.536ZM74.3457 31.5216H70.4059V38.3826H74.6609C77.1824 38.3826 78.6008 36.9712 78.6008 35.0501C78.6008 32.8546 77.2218 31.5216 74.3457 31.5216ZM76.7096 43.4402L70.4453 43.6362V52.536C70.4453 52.6144 70.4059 52.6536 70.3271 52.6536H64.3385C64.2597 52.6536 64.2203 52.6144 64.2203 52.536V26.464C64.2203 26.3856 64.2597 26.3464 64.3385 26.3464H75.8429C80.8071 26.3464 84.3136 29.7181 84.3136 34.6973C84.2742 40.931 80.0979 43.3226 76.7096 43.4402ZM107.874 47.1255C107.953 47.1255 107.992 47.1648 107.992 47.2432V52.536C107.992 52.6144 107.953 52.6536 107.874 52.6536H88.8838C88.805 52.6536 88.7656 52.6144 88.7656 52.536V26.464C88.7656 26.3856 88.805 26.3464 88.8838 26.3464H107.007C107.086 26.3464 107.125 26.3856 107.125 26.464V31.7176C107.125 31.796 107.086 31.8352 107.007 31.8352L94.9118 31.9528V37.0496L103.225 37.1672C103.304 37.1672 103.343 37.2064 103.343 37.2849V42.264C103.343 42.3424 103.304 42.3816 103.225 42.3816L94.9118 42.46V47.1648H107.874V47.1255ZM129.819 47.0471C129.898 47.0471 129.937 47.0863 129.937 47.1648V52.536C129.937 52.6144 129.898 52.6536 129.819 52.6536H113.153C113.074 52.6536 113.035 52.6144 113.035 52.536V26.464C113.035 26.3856 113.074 26.3464 113.153 26.3464H119.142C119.221 26.3464 119.26 26.3856 119.26 26.464V47.0079L129.819 47.0471ZM134.547 52.536V26.464C134.547 26.3856 134.586 26.3464 134.665 26.3464H140.653C140.732 26.3464 140.772 26.3856 140.772 26.464V52.536C140.772 52.6144 140.732 52.6536 140.653 52.6536H134.665C134.586 52.6536 134.547 52.6144 134.547 52.536ZM161.377 38.0298C161.456 38.0298 161.495 38.069 161.495 38.1474V43.2834C161.495 43.3618 161.456 43.401 161.377 43.401L153.813 43.4794V52.536C153.813 52.6144 153.773 52.6536 153.694 52.6536H147.706C147.627 52.6536 147.588 52.6144 147.588 52.536V26.464C147.588 26.3856 147.627 26.3464 147.706 26.3464H165.987C166.065 26.3464 166.105 26.3856 166.105 26.464V31.7568C166.105 31.8352 166.065 31.8744 165.987 31.8744L153.813 31.9528V37.9514L161.377 38.0298ZM189.783 47.1255C189.862 47.1255 189.902 47.1648 189.902 47.2432V52.536C189.902 52.6144 189.862 52.6536 189.783 52.6536H170.793C170.714 52.6536 170.675 52.6144 170.675 52.536V26.464C170.675 26.3856 170.714 26.3464 170.793 26.3464H188.917C188.995 26.3464 189.035 26.3856 189.035 26.464V31.7176C189.035 31.796 188.995 31.8352 188.917 31.8352L176.821 31.9528V37.0496L185.134 37.1672C185.213 37.1672 185.253 37.2064 185.253 37.2849V42.264C185.253 42.3424 185.213 42.3816 185.134 42.3816L176.821 42.46V47.1648H189.783V47.1255ZM240.844 39.5196C240.844 49.7131 232.531 57.9856 222.287 57.9856C212.043 57.9856 203.73 49.7131 203.73 39.5196C203.73 29.326 212.043 21.0536 222.287 21.0536C232.531 21.0536 240.844 29.2868 240.844 39.5196Z" fill="white"/>
<path d="M237.336 38.4219C237.336 30.7375 231.072 24.543 223.389 24.543C215.706 24.543 209.402 30.7375 209.402 38.4219C209.402 46.1062 215.667 52.3008 223.349 52.3008C231.032 52.3008 237.336 46.1062 237.336 38.4219Z" fill="white"/>
<path d="M232.923 35.1677C232.923 31.7176 230.126 28.934 226.659 28.934C223.192 28.934 220.395 31.7176 220.395 35.1677C220.395 38.6178 223.192 41.4015 226.659 41.4015C230.087 41.4015 232.923 38.6178 232.923 35.1677Z" fill="white"/>
</svg>

<svg width="262" height="79" fill="none" xmlns="http://www.w3.org/2000/svg"><path d="M36.563 31.522h-3.94v6.86h4.255c2.521 0 3.94-1.41 3.94-3.332 0-2.195-1.38-3.528-4.255-3.528zm2.363 11.918l-6.264.196v8.9c0 .078-.04.118-.118.118h-5.95c-.078 0-.117-.04-.117-.118V26.464c0-.078.039-.118.118-.118h11.504c4.964 0 8.47 3.372 8.47 8.351-.039 6.234-4.254 8.626-7.643 8.743zm12.253 9.096V26.464c0-.078.04-.118.119-.118h5.988c.079 0 .118.04.118.118v26.072c0 .078-.039.118-.118.118h-5.988c-.08 0-.119-.04-.119-.118zm23.167-21.014h-3.94v6.86h4.255c2.521 0 3.94-1.41 3.94-3.332 0-2.195-1.38-3.528-4.255-3.528zM76.71 43.44l-6.265.196v8.9c0 .078-.04.118-.118.118h-5.989c-.078 0-.118-.04-.118-.118V26.464c0-.078.04-.118.118-.118h11.505c4.964 0 8.47 3.372 8.47 8.351-.039 6.234-4.215 8.626-7.603 8.743zm31.164 3.686c.079 0 .118.039.118.117v5.293c0 .078-.039.118-.118.118h-18.99c-.079 0-.118-.04-.118-.118V26.464c0-.078.039-.118.118-.118h18.123c.079 0 .118.04.118.118v5.254c0 .078-.039.117-.118.117l-12.095.118v5.097l8.313.117c.079 0 .118.04.118.118v4.979c0 .078-.039.118-.118.118l-8.313.078v4.705h12.962v-.04zm21.945-.079c.079 0 .118.04.118.118v5.371c0 .078-.039.118-.118.118h-16.666c-.079 0-.118-.04-.118-.118V26.464c0-.078.039-.118.118-.118h5.989c.079 0 .118.04.118.118v20.544l10.559.04zm4.728 5.489V26.464c0-.078.039-.118.118-.118h5.988c.079 0 .119.04.119.118v26.072c0 .078-.04.118-.119.118h-5.988c-.079 0-.118-.04-.118-.118zm26.83-14.506c.079 0 .118.039.118.117v5.136c0 .079-.039.118-.118.118l-7.564.078v9.057c0 .078-.04.118-.119.118h-5.988c-.079 0-.118-.04-.118-.118V26.464c0-.078.039-.118.118-.118h18.281c.078 0 .118.04.118.118v5.293c0 .078-.04.117-.118.117l-12.174.079v5.998l7.564.079zm28.406 9.096c.079 0 .119.039.119.117v5.293c0 .078-.04.118-.119.118h-18.99c-.079 0-.118-.04-.118-.118V26.464c0-.078.039-.118.118-.118h18.124c.078 0 .118.04.118.118v5.254c0 .078-.04.117-.118.117l-12.096.118v5.097l8.313.117c.079 0 .119.04.119.118v4.979c0 .078-.04.118-.119.118l-8.313.078v4.705h12.962v-.04zm51.061-7.606c0 10.193-8.313 18.466-18.557 18.466-10.244 0-18.557-8.273-18.557-18.466 0-10.194 8.313-18.466 18.557-18.466 10.244 0 18.557 8.233 18.557 18.466z" fill="#fff"/><path d="M237.336 38.422c0-7.684-6.264-13.879-13.947-13.879-7.683 0-13.987 6.195-13.987 13.879 0 7.684 6.265 13.879 13.947 13.879 7.683 0 13.987-6.195 13.987-13.88z" fill="#fff"/><path d="M232.923 35.168c0-3.45-2.797-6.234-6.264-6.234s-6.264 2.784-6.264 6.234 2.797 6.233 6.264 6.233c3.428 0 6.264-2.783 6.264-6.233z" fill="#fff"/></svg>
